X:275
T: Lang Sine
N: O'Farrell's Pocket Companion v.3 (Sky ed. p.126)
N: "Scotch"
M: 6/8
L: 1/8
R: jig
Q: 250
K: Dm
d/e/| f>ed dBA| A>Bd e2 d/e/| f>ed dBA| A>Bd d2 :|
f/e/| dfa dfa| c'>af e2 d/e/| fed dBA| ABd d2 :|
